assets/images/members/tcs/tcs.svg

<svg viewBox="0 0 144 56" fill="none" 
  xmlns="http://www.w3.org/2000/svg">
  <path d="M51.4682 30.6759L47.3271 27.8516C45.7101 26.7114 45.0043 25.6708 45.0043 24.4328C45.0043 22.8466 46.3183 21.857 48.1864 21.857C50.5611 21.857 51.6716 22.9464 53.0852 22.9464C54.1957 22.9464 54.9534 22.2032 54.9534 21.1138C54.9534 20.3217 54.5486 19.6762 53.4879 19.1814C51.8211 18.3894 50.0027 18.0921 48.0328 18.0921C45.9612 18.0921 44.1429 18.6866 42.831 19.6783C42.5777 19.8758 42.3266 20.0753 42.0733 20.3217C40.558 21.9079 39.296 24.2353 38.2851 27.5055L37.1227 31.2704C35.0511 37.9105 31.7693 41.0809 26.6671 41.0809C21.0605 41.0809 17.5255 37.265 17.5255 31.6186C17.5255 25.9702 21.0605 22.1054 26.1627 22.1054C26.3848 22.1054 26.6007 22.1116 26.8145 22.1238C26.8394 22.1258 26.8664 22.1258 26.8913 22.1278C27.0823 22.138 27.2712 22.1543 27.4559 22.1747C27.4871 22.1787 27.5182 22.1808 27.5493 22.1849C27.7341 22.2052 27.9147 22.2317 28.0932 22.2602C28.1202 22.2643 28.1471 22.2683 28.1741 22.2724C28.363 22.305 28.5478 22.3396 28.7304 22.3803C28.745 22.3844 28.7595 22.3864 28.772 22.3885C29.569 22.5677 30.3101 22.8263 31.0138 23.148C31.6697 23.4453 32.226 23.545 32.7304 23.545C33.9426 23.545 34.7501 22.753 34.7501 21.5638C34.7501 20.8206 34.2955 20.0774 33.2348 19.5826C31.3147 18.6419 28.8404 18.0961 26.1627 18.0961C18.1815 18.0961 12.6766 23.6448 12.6766 31.7204C12.6766 33.8462 13.0627 35.7969 13.785 37.5155C12.7368 39.7512 11.1343 40.9363 9.03988 40.9363C6.5137 40.9363 4.84687 39.4988 4.84687 36.2286V22.2561H10.7565C12.1203 22.2561 13.0295 21.464 13.0295 20.3238C13.0295 19.1835 12.1203 18.3914 10.7565 18.3914H4.84895V13.3355C4.84895 11.8491 3.83806 10.8574 2.42447 10.8574C1.01089 10.8574 0 11.8491 0 13.3355V23.1459V36.7702C0 42.2212 3.18212 45.0943 8.5853 45.0943C9.79753 45.0943 10.9081 44.8967 11.9189 44.5486C13.6896 43.897 15.1114 42.7506 16.1161 41.1094C18.5157 43.6526 22.0777 45.1431 26.5156 45.1431C28.8384 45.1431 30.8601 44.6972 32.6785 43.7565C36.365 41.873 38.9929 38.0592 40.8113 32.2132L41.872 28.7944C42.5798 29.7209 43.57 30.6066 44.9026 31.5188L48.6908 34.0946C50.4075 35.2838 51.1153 36.2754 51.1153 37.711C51.1153 39.8408 49.3987 41.2784 46.9223 41.2784C44.5476 41.2784 42.5279 40.0893 41.4174 40.0893C40.3069 40.0893 39.5492 40.8325 39.5492 41.9218C39.5492 42.7139 39.954 43.3594 41.0147 43.8542C42.4802 44.5486 44.8528 45.1431 46.9742 45.1431C49.6519 45.1431 51.873 44.351 53.4401 42.9623C54.8537 41.6734 55.7131 39.8408 55.7131 37.711C55.711 34.7401 54.4988 32.7569 51.4682 30.6759Z" fill="black"/>
  <path d="M64.9894 19.3951H68.3938V13.3149H70.809V10.8574H62.5742V13.3149H64.9894V19.3951Z" fill="black"/>
  <path d="M73.32 19.3951L75.0553 14.2894L76.7879 19.3951H80.1183L76.854 10.8574H73.2538L69.9922 19.3951H73.32Z" fill="black"/>
  <path d="M81.7159 19.3951H85.1204V13.3149H87.5355V10.8574H79.3008V13.3149H81.7159V19.3951Z" fill="black"/>
  <path d="M90.0387 19.3951L91.774 14.2894L93.5067 19.3951H96.8371L93.5754 10.8574H89.9726L86.7109 19.3951H90.0387Z" fill="black"/>
  <path d="M122.713 25.5029C123.134 26.4694 123.689 27.5155 124.242 28.4476L126.469 32.2027H128.083V23.665H126.641V26.6442C126.641 27.9498 126.67 29.0488 126.782 30.1822L126.752 30.1901C126.358 29.2633 125.864 28.2702 125.3 27.3301L123.097 23.665H121.316V32.2027H122.755V29.1494C122.755 27.7485 122.734 26.6204 122.673 25.5108L122.713 25.5029Z" fill="black"/>
  <path d="M114.988 29.7902H117.697L118.469 32.2027H120.141L117.372 23.665H115.39L112.652 32.2027H114.263L114.988 29.7902ZM115.901 26.5039C116.052 25.9954 116.181 25.4049 116.305 24.9044H116.332C116.462 25.3996 116.602 25.9822 116.763 26.5092L117.435 28.6145H115.237L115.901 26.5039Z" fill="black"/>
  <path d="M89.5908 31.0444C88.7972 31.0444 88.0327 30.7901 87.5301 30.4989L87.1836 31.7912C87.6492 32.0772 88.5856 32.3367 89.4876 32.3367C91.6885 32.3367 92.7228 31.145 92.7228 29.7706C92.7228 28.5445 92.0112 27.7977 90.5299 27.2337C89.3924 26.7994 88.8977 26.4895 88.8977 25.8354C88.8977 25.3323 89.3183 24.8079 90.3077 24.8079C91.1092 24.8079 91.7044 25.0516 92.0112 25.2131L92.3842 23.9552C91.9398 23.7301 91.2626 23.5342 90.3394 23.5342C88.4904 23.5342 87.3211 24.5881 87.3211 25.9864C87.3211 27.2098 88.2205 27.9672 89.6305 28.4677C90.7071 28.8596 91.1409 29.241 91.1409 29.8845C91.1409 30.5783 90.5828 31.0444 89.5908 31.0444Z" fill="black"/>
  <path d="M67.2061 24.8202C67.9018 24.8202 68.4706 24.9738 68.8674 25.1539L69.206 23.9119C68.8885 23.7398 68.1664 23.5332 67.14 23.5332C64.5344 23.5332 62.5742 25.228 62.5742 28.0351C62.5742 30.6329 64.2222 32.3384 66.9284 32.3384C67.96 32.3384 68.7721 32.1344 69.1398 31.9491L68.8832 30.7203C68.4732 30.9057 67.8145 31.0302 67.1823 31.0302C65.3068 31.0302 64.2143 29.8385 64.2143 27.9556C64.2143 25.906 65.4655 24.8202 67.2061 24.8202Z" fill="black"/>
  <path d="M110.752 32.2027V24.9759H113.21V23.665H106.758V24.9759H109.194V32.2027H110.752Z" fill="black"/>
  <path d="M141.888 23.665L140.861 25.8524C140.57 26.4721 140.335 27.0017 140.123 27.5473H140.097C139.864 26.97 139.642 26.4827 139.353 25.8551L138.338 23.665H136.555L139.253 28.6489V32.2027H140.811V28.6065L143.644 23.6677H141.888V23.665Z" fill="black"/>
  <path d="M73.7128 23.5264C71.3056 23.5264 69.6523 25.3774 69.6523 27.9991C69.6523 30.499 71.176 32.3448 73.5885 32.3448H73.6017C75.9375 32.3448 77.6702 30.7082 77.6702 27.8482C77.6649 25.4066 76.1994 23.5264 73.7128 23.5264ZM73.652 31.0948H73.6388C72.1495 31.0948 71.2792 29.6595 71.2845 27.962C71.2818 26.2593 72.1019 24.7737 73.6573 24.7737C75.2127 24.7737 76.0116 26.2963 76.0116 27.9064C76.0089 29.6913 75.1572 31.0948 73.652 31.0948Z" fill="black"/>
  <path d="M134.062 24.8202C134.757 24.8202 135.326 24.9738 135.723 25.1539L136.061 23.9119C135.744 23.7398 135.022 23.5332 133.995 23.5332C131.39 23.5332 129.43 25.228 129.43 28.0351C129.43 30.6329 131.078 32.3384 133.784 32.3384C134.815 32.3384 135.628 32.1371 135.995 31.9491L135.739 30.7203C135.329 30.9057 134.67 31.0302 134.038 31.0302C132.162 31.0302 131.07 29.8385 131.07 27.9556C131.07 25.906 132.321 24.8202 134.062 24.8202Z" fill="black"/>
  <path d="M104.107 23.665H102.549V32.2027H107.615V30.8945H104.107V23.665Z" fill="black"/>
  <path d="M100.776 28.5413V23.666H99.218V28.6446C99.218 30.3182 98.5434 31.0888 97.4218 31.0888C96.3664 31.0888 95.6733 30.3129 95.6733 28.6446V23.666H94.1152V28.5519C94.1152 31.2371 95.3982 32.3467 97.3636 32.3467C99.4243 32.3441 100.776 31.1709 100.776 28.5413Z" fill="black"/>
  <path d="M85.7803 23.665H84.3386V26.6442C84.3386 27.9498 84.3677 29.0488 84.4788 30.1822L84.4497 30.1901C84.0556 29.2633 83.5609 28.2702 82.9975 27.3301L80.7939 23.665H79.0137V32.2027H80.4554V29.1494C80.4554 27.7485 80.4342 26.6204 80.3733 25.5135L80.413 25.5055C80.8336 26.4721 81.3891 27.5181 81.942 28.4503L84.1693 32.2054H85.7829V23.665H85.7803Z" fill="black"/>
  <path d="M92.4408 36.4697H90.8828V45.0074H92.4408V36.4697Z" fill="black"/>
  <path d="M80.1666 41.0034V40.969C80.9629 40.6856 81.7036 39.9441 81.7036 38.8531C81.7036 38.1275 81.439 37.5396 80.9761 37.153C80.4047 36.6763 79.4207 36.4697 78.3652 36.4697C77.3097 36.4697 76.6114 36.5439 76.0215 36.6525V45.0074H77.5557V41.5251H78.3335C79.2117 41.5463 79.6138 41.9038 79.8571 43.008C80.0926 44.062 80.2963 44.7611 80.4259 45.0074H82.0131C81.8438 44.6764 81.6136 43.7045 81.3464 42.6453C81.1348 41.8217 80.7804 41.2364 80.1666 41.0034ZM78.471 40.389H77.5557V37.7117C77.7118 37.672 78.0266 37.6349 78.516 37.6349C79.5159 37.6376 80.164 38.0692 80.164 38.9934C80.164 39.8355 79.5186 40.389 78.471 40.389Z" fill="black"/>
  <path d="M87.0688 40.3728C86.7381 41.4083 86.4286 42.4516 86.2011 43.4579H86.1747C85.9525 42.4252 85.6615 41.4268 85.3388 40.349L84.1748 36.4668H82.4766L85.2356 45.0045H87.0212L89.968 36.4668H88.3094L87.0688 40.3728Z" fill="black"/>
  <path d="M103.222 41.2179H106.436V39.9468H103.222V37.7514H106.627V36.4697H101.664V45.0048H106.814V43.7231H103.222V41.2179Z" fill="black"/>
  <path d="M98.4092 37.621C99.1049 37.621 99.6737 37.7746 100.07 37.9547L100.409 36.7127C100.092 36.5405 99.3695 36.334 98.3431 36.334C95.7375 36.334 93.7773 38.0288 93.7773 40.8359C93.7773 43.4337 95.4254 45.1391 98.1315 45.1391C99.1631 45.1391 99.9752 44.9379 100.343 44.7499L100.086 43.5211C99.6737 43.7065 99.0177 43.8309 98.3854 43.8309C96.5099 43.8309 95.4174 42.6393 95.4174 40.7564C95.4174 38.7067 96.6686 37.621 98.4092 37.621Z" fill="black"/>
  <path d="M65.9192 40.0335C64.7791 39.5992 64.2871 39.2893 64.2871 38.6352C64.2871 38.1321 64.7077 37.6078 65.6944 37.6078C66.4959 37.6078 67.0911 37.8514 67.3979 38.0129L67.7709 36.755C67.3265 36.53 66.6493 36.334 65.7261 36.334C63.8771 36.334 62.7079 37.388 62.7079 38.7862C62.7079 40.0096 63.6073 40.767 65.0172 41.2675C66.0938 41.6594 66.5276 42.0408 66.5276 42.6843C66.5276 43.3834 65.9721 43.8495 64.9775 43.8495C64.1839 43.8495 63.4194 43.5953 62.9168 43.304L62.5703 44.5963C63.0359 44.8823 63.9723 45.1418 64.8743 45.1418C67.0752 45.1418 68.1095 43.9501 68.1095 42.5757C68.1122 41.3443 67.4006 40.5975 65.9192 40.0335Z" fill="black"/>
  <path d="M71.0717 41.2179H74.2858V39.9468H71.0717V37.7514H74.4789V36.4697H69.5137V45.0048H74.6667V43.7231H71.0717V41.2179Z" fill="black"/>
  <path d="M111.148 40.0335C110.01 39.5992 109.516 39.2893 109.516 38.6352C109.516 38.1321 109.936 37.6078 110.923 37.6078C111.724 37.6078 112.32 37.8514 112.626 38.0129L112.999 36.755C112.555 36.53 111.878 36.334 110.955 36.334C109.106 36.334 107.936 37.388 107.936 38.7862C107.936 40.0096 108.836 40.767 110.246 41.2675C111.322 41.6594 111.756 42.0408 111.756 42.6843C111.756 43.3834 111.201 43.8495 110.206 43.8495C109.412 43.8495 108.648 43.5953 108.145 43.304L107.799 44.5963C108.264 44.8823 109.201 45.1418 110.103 45.1418C112.304 45.1418 113.338 43.9501 113.338 42.5757C113.341 41.3443 112.629 40.5975 111.148 40.0335Z" fill="black"/>
</svg>

<svg xmlns="http://www.w3.org/2000/svg" fill="none" viewBox="0 0 144 56"><path fill="#000" d="m51.468 30.676-4.14-2.824c-1.618-1.14-2.324-2.181-2.324-3.42 0-1.585 1.314-2.575 3.182-2.575 2.375 0 3.486 1.09 4.9 1.09 1.11 0 1.867-.744 1.867-1.833 0-.792-.404-1.438-1.465-1.933-1.667-.792-3.485-1.089-5.455-1.089-2.072 0-3.89.595-5.202 1.586a9 9 0 0 0-.758.644c-1.515 1.586-2.777 3.913-3.788 7.184l-1.162 3.764c-2.072 6.64-5.354 9.81-10.456 9.81-5.607 0-9.141-3.815-9.141-9.461 0-5.649 3.535-9.514 8.637-9.514q.332 0 .651.019l.077.004q.287.015.565.047l.093.01q.277.032.544.075l.081.012q.283.049.556.108l.042.009c.797.179 1.538.437 2.242.759.656.297 1.212.397 1.716.397 1.213 0 2.02-.792 2.02-1.981 0-.743-.455-1.487-1.515-1.981-1.92-.941-4.395-1.487-7.072-1.487-7.982 0-13.486 5.549-13.486 13.624 0 2.126.386 4.077 1.108 5.796-1.048 2.235-2.65 3.42-4.745 3.42-2.526 0-4.193-1.437-4.193-4.707V22.256h5.91c1.363 0 2.273-.792 2.273-1.932s-.91-1.933-2.273-1.933H4.849v-5.055c0-1.487-1.01-2.479-2.425-2.479-1.413 0-2.424.992-2.424 2.479V36.77c0 5.451 3.182 8.324 8.585 8.324 1.213 0 2.323-.197 3.334-.545a8.08 8.08 0 0 0 4.197-3.44c2.4 2.544 5.962 4.034 10.4 4.034 2.322 0 4.344-.446 6.163-1.386 3.686-1.884 6.314-5.698 8.132-11.544l1.061-3.419c.708.927 1.698 1.813 3.03 2.725l3.789 2.576c1.716 1.189 2.424 2.18 2.424 3.616 0 2.13-1.716 3.567-4.193 3.567-2.374 0-4.394-1.189-5.505-1.189s-1.868.744-1.868 1.833c0 .792.405 1.437 1.466 1.932 1.465.695 3.838 1.29 5.96 1.29 2.677 0 4.898-.793 6.465-2.182 1.414-1.289 2.273-3.121 2.273-5.251-.002-2.97-1.214-4.954-4.245-7.035M64.99 19.395h3.404v-6.08h2.415v-2.458h-8.235v2.458h2.415zM73.32 19.395l1.735-5.106 1.733 5.106h3.33l-3.264-8.538h-3.6l-3.262 8.538zM81.716 19.395h3.404v-6.08h2.415v-2.458h-8.234v2.458h2.415zM90.039 19.395l1.735-5.106 1.733 5.106h3.33l-3.262-8.538h-3.602l-3.262 8.538zM122.713 25.503c.421.966.976 2.012 1.529 2.945l2.227 3.755h1.614v-8.538h-1.442v2.98c0 1.305.029 2.404.141 3.537l-.03.008a24 24 0 0 0-1.452-2.86l-2.203-3.665h-1.781v8.538h1.439v-3.054c0-1.4-.021-2.529-.082-3.638zM114.988 29.79h2.709l.772 2.413h1.672l-2.769-8.538h-1.982l-2.738 8.538h1.611zm.913-3.286c.151-.509.28-1.1.404-1.6h.027c.13.496.27 1.078.431 1.605l.672 2.105h-2.198zM89.59 31.044a4.3 4.3 0 0 1-2.06-.545l-.346 1.292c.465.286 1.402.546 2.304.546 2.2 0 3.235-1.192 3.235-2.566 0-1.227-.712-1.973-2.193-2.537-1.138-.435-1.632-.745-1.632-1.399 0-.503.42-1.027 1.41-1.027.801 0 1.396.244 1.703.405l.373-1.258c-.444-.225-1.121-.42-2.045-.42-1.849 0-3.018 1.053-3.018 2.451 0 1.224.9 1.981 2.31 2.482 1.076.392 1.51.773 1.51 1.416 0 .694-.558 1.16-1.55 1.16M67.206 24.82c.696 0 1.265.154 1.661.334l.339-1.242c-.318-.172-1.04-.379-2.066-.379-2.606 0-4.566 1.695-4.566 4.502 0 2.598 1.648 4.303 4.354 4.303 1.032 0 1.844-.204 2.212-.389l-.257-1.229c-.41.186-1.069.31-1.7.31-1.876 0-2.969-1.192-2.969-3.074 0-2.05 1.252-3.136 2.992-3.136M110.752 32.203v-7.227h2.458v-1.311h-6.452v1.31h2.436v7.228zM141.888 23.665l-1.027 2.187c-.291.62-.526 1.15-.738 1.695h-.026a37 37 0 0 0-.744-1.692l-1.015-2.19h-1.783l2.698 4.984v3.554h1.558v-3.597l2.833-4.938h-1.756zM73.713 23.526c-2.407 0-4.06 1.851-4.06 4.473 0 2.5 1.523 4.346 3.935 4.346h.014c2.335 0 4.068-1.637 4.068-4.497-.005-2.441-1.47-4.322-3.957-4.322m-.061 7.569h-.013c-1.49 0-2.36-1.435-2.355-3.133-.002-1.703.818-3.188 2.373-3.188s2.355 1.522 2.355 3.132c-.003 1.785-.855 3.189-2.36 3.189M134.062 24.82a4.1 4.1 0 0 1 1.661.334l.338-1.242c-.317-.172-1.039-.379-2.066-.379-2.605 0-4.565 1.695-4.565 4.502 0 2.598 1.648 4.303 4.354 4.303 1.031 0 1.844-.2 2.211-.389l-.256-1.229c-.41.186-1.069.31-1.701.31-1.876 0-2.968-1.192-2.968-3.074 0-2.05 1.251-3.136 2.992-3.136M104.107 23.665h-1.558v8.538h5.066v-1.309h-3.508zM100.776 28.541v-4.875h-1.558v4.979c0 1.673-.675 2.444-1.796 2.444-1.056 0-1.749-.776-1.749-2.444v-4.979h-1.558v4.886c0 2.685 1.283 3.795 3.249 3.795 2.06-.003 3.412-1.176 3.412-3.806M85.78 23.665H84.34v2.98c0 1.305.029 2.404.14 3.537l-.03.008a24 24 0 0 0-1.451-2.86l-2.204-3.665h-1.78v8.538h1.441v-3.054c0-1.4-.02-2.529-.082-3.636l.04-.008c.42.967.976 2.013 1.529 2.945l2.227 3.755h1.614v-8.54zM92.44 36.47h-1.557v8.537h1.558zM80.167 41.003v-.034c.796-.283 1.537-1.025 1.537-2.116 0-.726-.265-1.313-.728-1.7-.571-.477-1.555-.683-2.61-.683-1.056 0-1.755.074-2.344.183v8.354h1.534v-3.482h.778c.878.021 1.28.379 1.523 1.483.236 1.054.44 1.753.569 2h1.587c-.17-.332-.4-1.303-.667-2.363-.211-.823-.566-1.409-1.18-1.642m-1.696-.614h-.915v-2.677c.156-.04.47-.077.96-.077 1 .003 1.648.434 1.648 1.358 0 .843-.645 1.396-1.693 1.396M87.069 40.373c-.33 1.035-.64 2.079-.868 3.085h-.026c-.222-1.033-.513-2.031-.836-3.109l-1.164-3.882h-1.698l2.759 8.538h1.785l2.947-8.538h-1.659zM103.222 41.218h3.214v-1.271h-3.214V37.75h3.405V36.47h-4.963v8.535h5.15v-1.282h-3.592zM98.41 37.621c.695 0 1.264.154 1.66.334l.339-1.242c-.317-.172-1.04-.379-2.066-.379-2.606 0-4.566 1.695-4.566 4.502 0 2.598 1.648 4.303 4.355 4.303 1.031 0 1.843-.201 2.211-.39l-.257-1.228c-.412.185-1.068.31-1.7.31-1.876 0-2.969-1.192-2.969-3.075 0-2.05 1.252-3.135 2.992-3.135M65.92 40.034c-1.14-.435-1.633-.745-1.633-1.399 0-.503.42-1.027 1.407-1.027.802 0 1.397.243 1.704.405l.373-1.258c-.445-.225-1.122-.421-2.045-.421-1.849 0-3.018 1.054-3.018 2.452 0 1.224.9 1.981 2.31 2.481 1.076.392 1.51.774 1.51 1.417 0 .7-.556 1.166-1.55 1.166a4.3 4.3 0 0 1-2.061-.546l-.347 1.292c.466.286 1.402.546 2.304.546 2.201 0 3.236-1.192 3.236-2.566.002-1.232-.71-1.979-2.19-2.543M71.072 41.218h3.214v-1.271h-3.214V37.75h3.407V36.47h-4.965v8.535h5.153v-1.282h-3.595zM111.148 40.034c-1.138-.435-1.632-.745-1.632-1.399 0-.503.42-1.027 1.407-1.027.801 0 1.397.243 1.703.405l.373-1.258c-.444-.225-1.121-.421-2.044-.421-1.849 0-3.019 1.054-3.019 2.452 0 1.224.9 1.981 2.31 2.481 1.076.392 1.51.774 1.51 1.417 0 .7-.555 1.166-1.55 1.166a4.3 4.3 0 0 1-2.061-.546l-.346 1.292c.465.286 1.402.546 2.304.546 2.201 0 3.235-1.192 3.235-2.566.003-1.232-.709-1.979-2.19-2.543"/></svg>
